X:1
T:Title
%%score { 1 | 2 }
L:1/8
Q:1/4=108
M:4/4
K:Bb
V:1 treble nm="Grand Piano"
V:2 bass 
V:1
 [DB]2 [DB]2 [DB]3 [DG] | A2 A2 F4 | c2 c2 c3 d | [DB]2 [EG]2 [DF]4 | [EG]2 [EG]2 [GB]3 [EG] | %5
w: C.~Austin~Miles * * *|||||
 [DF]2 [DG]2 [DA]2 [FB]2 | [=Ec]2 [EG]2 [Ec]2 [EG]2 |[M:3/4] c6 |[M:1/4] F2 | %9
w: ||||
[M:4/4] D2 [DF]2- [DF][EG] [DF]>[CE] | [B,D]>[CE] [DF]4 [DF]2 | [FB]2 [FB]4 [FA]2 | G6 G2 | %13
w: ||||
 A2 A2- AG F>G | A2 F2 G2 A2 | B2 [Fd]4 [DB]2 | [Ec]2 [Ge]2 [Fd]2 [Ec]2 | %17
w: ||||
 [DB]2 [Fd]2- [Fd][=E_d] [F=d]>[_Ec] | [DB]>[Ec] [Fd]4 [^Fc]2 | [EGB]3 [E^FA] [EGB]2 [B,EG]2 | %20
w: |||
 [DF]2 [B,DF]2 [F,B,D]2 [B,DF]2 | G2 B4 c2 | d2 B4 [Ge]2 | c3 =B c2 d2 | [DB]6 z2 |] %25
w: |||||
V:2
 [B,,F,]2 [B,,F,]2 [B,,F,]3 [B,,B,] | [F,CE]2 [F,CE]2 [F,A,E]4 | %2
 [F,A,E]2 [F,A,E]2 [F,A,E]3 [F,A,F] | [B,,B,]2 [B,,B,]2 [B,,B,]4 | [E,B,]2 [E,B,]2 [E,E]3 [E,B,] | %5
 [B,,B,]2 [B,,B,]2 [B,,B,]2 [D,B,]2 | [C,G,]2 [C,C]2 [C,B,]2 [C,B,]2 |[M:3/4] [F,A,E]6 | %8
[M:1/4] [F,A,E]2 |[M:4/4] [B,,F,]2 [B,,B,]2- [B,,B,][B,,B,] [B,,B,]>[B,,B,] | %10
 [B,,F,]2 [B,,B,]4 [B,,B,]2 | [D,B,]2 [D,B,]4 [D,B,]2 | [E,B,E]6 [E,CE]2 | %13
 [F,CE]2 [F,CE]2- [F,CE][F,B,E] [F,A,]>[F,B,E] | [F,CE]2 [F,A,E]2 [F,B,E]2 [F,CE]2 | %15
 [B,,B,]2 [B,,B,]4 [B,,B,]2 | [F,A,]2 [F,A,]2 [F,B,]2 [F,A,]2 | %17
 [B,,B,]2 [B,,B,]2- [B,,B,][B,,B,] [B,,B,]>[B,,B,] | [B,,F,]2 [B,,B,]4 [D,A,]2 | E,3 F, E,2 G,2 | %20
 B,2 B,,2 B,,2 B,,2 | [E,B,E]2 [G,B,E]4 [^F,B,E]2 | [F,B,F]2 [G,B,D]4 [E,B,]2 | %23
 [F,A,E]3 [F,_A,D] [F,=A,E]2 [F,A,F]2 | [B,,F,B,]6 z2 |] %25

